modules/hawcons-stroke/icons/file-pdf.svg

<?xml version="1.0" encoding="UTF-8" standalone="no"?>
<svg width="32px" height="32px" viewBox="0 0 32 32" version="1.1" xmlns="http://www.w3.org/2000/svg" xmlns:xlink="http://www.w3.org/1999/xlink" xmlns:sketch="http://www.bohemiancoding.com/sketch/ns">
    <!-- Generator: Sketch 3.0.3 (7891) - http://www.bohemiancoding.com/sketch -->
    <title>icon 5 file pdf</title>
    <desc>Created with Sketch.</desc>
    <defs></defs>
    <g id="Page-1" stroke="none" stroke-width="1" fill="none" fill-rule="evenodd" sketch:type="MSPage">
        <g id="icon-5-file-pdf" sketch:type="MSArtboardGroup" fill="#929292">
            <path d="M8.00684834,10 C6.34621185,10 5,11.3422643 5,12.9987856 L5,20.0012144 C5,21.6573979 6.33599155,23 8.00684834,23 L24.9931517,23 C26.6537881,23 28,21.6577357 28,20.0012144 L28,12.9987856 C28,11.3426021 26.6640085,10 24.9931517,10 L8.00684834,10 L8.00684834,10 Z M7.99456145,11 C6.89299558,11 6,11.9001762 6,12.992017 L6,20.007983 C6,21.1081436 6.90234375,22 7.99456145,22 L25.0054385,22 C26.1070044,22 27,21.0998238 27,20.007983 L27,12.992017 C27,11.8918564 26.0976562,11 25.0054385,11 L7.99456145,11 L7.99456145,11 Z M21,16 L21,14 L25,14 L25,13 L20,13 L20,20 L21,20 L21,17 L24,17 L24,16 L21,16 L21,16 Z M8,15 L8,20 L9,20 L9,17 L10.9951185,17 C12.102384,17 13,16.1122704 13,15 C13,13.8954305 12.1061002,13 10.9951185,13 L8,13 L8,15 L8,15 Z M9,14 L9,16 L11.0010434,16 C11.5527519,16 12,15.5561352 12,15 C12,14.4477153 11.5573397,14 11.0010434,14 L9,14 L9,14 Z M14,13 L14,20 L16.9951185,20 C18.102384,20 19,19.1134452 19,17.9940809 L19,15.0059191 C19,13.8980806 18.1061002,13 16.9951185,13 L14,13 L14,13 Z M15,14 L15,19 L17.0010434,19 C17.5527519,19 18,18.5562834 18,18.0001925 L18,14.9998075 C18,14.4476291 17.5573397,14 17.0010434,14 L15,14 L15,14 Z" id="file-pdf" sketch:type="MSShapeGroup"></path>
        </g>
    </g>
</svg>

<svg width="32" height="32" xmlns="http://www.w3.org/2000/svg"><path d="M8.007 10A3.003 3.003 0 0 0 5 12.999V20A2.996 2.996 0 0 0 8.007 23h16.986A3.003 3.003 0 0 0 28 20.001V13A2.996 2.996 0 0 0 24.993 10H8.007zm-.012 1C6.893 11 6 11.9 6 12.992v7.016A2 2 0 0 0 7.995 22h17.01C26.107 22 27 21.1 27 20.008v-7.016A2 2 0 0 0 25.005 11H7.995zM21 16v-2h4v-1h-5v7h1v-3h3v-1h-3zM8 15v5h1v-3h1.995a2 2 0 0 0 0-4H8v2zm1-1v2h2.001A.997.997 0 0 0 12 15c0-.552-.443-1-.999-1H9zm5-1v7h2.995A1.998 1.998 0 0 0 19 17.994v-2.988A2.003 2.003 0 0 0 16.995 13H14zm1 1v5h2.001A.997.997 0 0 0 18 18v-3c0-.552-.443-1-.999-1H15z" fill="#929292" fill-rule="evenodd"/></svg>
